X:1195
T:Leave My Way
M:C|
L:1/8
R:Reel
B:O'Neill's 1195
N:Collected by Early
Z:Transcribed by Trish O'Neil
K:G
B,D|GFGB A2Bc|dBcA BGAF|DGGBA2dc|BGAFG2TFD|
AGFGBA23ABc|d2gd BGAF|DGGB ABcA|3Bcd AFG2||
z2|Tgfgef2fd|e2fg afdf|g2gef2df|egfag2Bd|
g2bgf2af|ed 3efg afdf|gabg ecAc|BGAFG2||
